X:1
T:Title
%%score ( 1 2 ) { 3 | 4 }
L:1/8
Q:1/4=123
M:3/4
K:F
V:1 treble nm="Grand Piano, Staff 1"
V:2 treble 
V:3 bass nm="Choir Pad, Elim, CM"
V:4 bass 
V:1
 [DF]2 F2 d2 | [DB]2 [DF]4 | [DF]2 F2 _e2 | [_Ec]2 [EF]4 | [_EF]2 F2 d2 | [DB]2 B2 A2 | %6
w: By~Henry~Wellington~Greatorex~(1813\-1858) * *||||||
 [EB]2 [Fc]4 | [_EF]2 d2 B2 | [DF]2 [DF]4 | [DF]2 _e2 c2 | [_EF]2 [EF]4 | [_EF]2 F2 B2 | %12
w: ||||||
 [Gc]2 [Bd]4 | [Fc]2 [FB]4- | [FB]4 z2 |] %15
w: |||
V:2
 z2 D4 | x6 | z2 _E4 | x6 | z2 D4 | z2 D4 | x6 | z2 D4 | x6 | z2 _E4 | x6 | z2 D4 | x6 | x6 | x6 |] %15
V:3
 F,2 F,4 | F,2 F,2 D2 | B,2 F,4 | F,2 F,2 _E2 | C2 F,4 | F,2 G,4 | G,2 A,4 | A,2 B,2 F,2 | %8
 F,2 D2 B,2 | F,2 F,4 | F,2 _E2 C2 | F,2 F,2[K:treble] D2 | C2 B,2 F2 | _E2 D4- | D4 z2 |] %15
V:4
 B,,2 B,,4 | B,,2 B,,4 | B,,2 A,,4 | A,,2 A,,4 | A,,2 B,,4 | B,,2 G,,4 | C,2 F,4 | F,2 B,,4 | %8
 B,,2 B,,4 | B,,2 A,,4 | A,,2 A,,4 | A,,2 B,,4 | _E,2 F,4 | F,2 B,,4- | B,,4 z2 |] %15

